img/linkedin.svg

<svg width="25" height="25" viewBox="0 0 25 25" fill="none" xmlns="http://www.w3.org/2000/svg">
<path d="M4.90132 0.00585938C2.20839 0.00585938 0.00439453 2.20981 0.00439453 4.90278V20.0988C0.00439453 22.7917 2.20834 24.9949 4.90132 24.9949H20.0973C22.7903 24.9949 24.9935 22.7918 24.9935 20.0988V4.90278C24.9935 2.20986 22.7903 0.00585938 20.0973 0.00585938H4.90132ZM6.13297 4.12956C7.42417 4.12956 8.21949 4.97721 8.24404 6.09143C8.24404 7.18106 7.42412 8.05253 6.10799 8.05253H6.08377C4.81714 8.05253 3.99847 7.18111 3.99847 6.09143C3.99847 4.97723 4.84192 4.12956 6.13294 4.12956H6.13297ZM17.26 9.33731C19.7432 9.33731 21.6047 10.9604 21.6047 14.4482V20.9594H17.8309V14.8848C17.8309 13.3583 17.2847 12.3168 15.919 12.3168C14.8764 12.3168 14.2549 13.0188 13.9821 13.6969C13.8824 13.9395 13.8579 14.2783 13.8579 14.6177V20.9594H10.0841C10.0841 20.9594 10.1336 10.6691 10.0841 9.60361H13.8587V11.2117C14.3602 10.438 15.2572 9.33728 17.26 9.33728V9.33731ZM4.22107 9.60443H7.99489V20.9595H4.22107V9.60443Z" fill="#3C2829"/>
</svg>

<svg xmlns="http://www.w3.org/2000/svg" width="25" height="25" fill="none"  xmlns:v="https://vecta.io/nano"><path d="M4.901.006C2.208.006.004 2.21.004 4.903v15.196c0 2.693 2.204 4.896 4.897 4.896h15.196c2.693 0 4.896-2.203 4.896-4.896V4.903c0-2.693-2.203-4.897-4.896-4.897H4.901zM6.133 4.13c1.291 0 2.087.848 2.111 1.962 0 1.09-.82 1.961-2.136 1.961h-.024c-1.267 0-2.085-.871-2.085-1.961 0-1.114.843-1.962 2.134-1.962h0zM17.26 9.337c2.483 0 4.345 1.623 4.345 5.111v6.511h-3.774v-6.075c0-1.527-.546-2.568-1.912-2.568-1.043 0-1.664.702-1.937 1.38-.1.243-.124.581-.124.921v6.342h-3.774V9.604h3.775v1.608c.502-.774 1.398-1.874 3.401-1.874h0zm-13.039.267h3.774V20.96H4.221V9.604z" fill="#3c2829"/></svg>
